svgs/sharp-solid/list-ol.svg

<svg xmlns="http://www.w3.org/2000/svg" viewBox="0 0 512 512"><!--! Font Awesome Pro 6.6.0 by @fontawesome - https://fontawesome.com License - https://fontawesome.com/license (Commercial License) Copyright 2024 Fonticons, Inc. --><path d="M32 32l24 0 24 0 24 0 0 24 0 120 8 0 24 0 0 48-24 0-8 0-48 0-8 0-24 0 0-48 24 0 8 0 0-96L32 80l0-48zM8 352c0-35.3 28.7-64 64-64l17.2 0c34.7 0 62.8 28.1 62.8 62.8c0 17.7-7.5 34.6-20.5 46.5L93.4 432l34.6 0 24 0 0 48-24 0-96 0L8 480l0-24 0-.6 0-10.6 7.8-7.1 83.3-75.9c3.1-2.8 4.8-6.8 4.8-11c0-8.2-6.6-14.8-14.8-14.8L72 336c-8.8 0-16 7.2-16 16L8 352zM224 64l256 0 32 0 0 64-32 0-256 0-32 0 0-64 32 0zm0 160l256 0 32 0 0 64-32 0-256 0-32 0 0-64 32 0zm0 160l256 0 32 0 0 64-32 0-256 0-32 0 0-64 32 0z"/></svg>

<svg xmlns="http://www.w3.org/2000/svg" viewBox="0 0 512 512"><!--! Font Awesome Pro 6.4.2 by @fontawesome - https://fontawesome.com License - https://fontawesome.com/license (Commercial License) Copyright 2023 Fonticons, Inc. --><path d="M32 32H56 80h24V56 176h8 24v48H112h-8H56 48 24V176H48h8V80H32V32zM8 352c0-35.3 28.7-64 64-64H89.2c34.7 0 62.8 28.1 62.8 62.8c0 17.7-7.5 34.6-20.5 46.5L93.4 432H128h24v48H128 32 8V456v-.6V444.8l7.8-7.1 83.3-75.9c3.1-2.8 4.8-6.8 4.8-11c0-8.2-6.6-14.8-14.8-14.8H72c-8.8 0-16 7.2-16 16H8zM224 64H480h32v64H480 224 192V64h32zm0 160H480h32v64H480 224 192V224h32zm0 160H480h32v64H480 224 192V384h32z"/></svg>
